X:645
T: "Vergebliche Hoffnung"
N: Z1326
O: Europa, Mitteleuropa, Deutschland, Westfalen
R: Zech -, Schalks - Lied, Liebes - Lied
M: 6/8
L: 1/16
K: F
FG | A2ABAGF4AB | c2cdcBA4
AB | c4c2d2d2c2 | c2B2B2A4
c2 | c2d2e2f4AA | G2A2B2c4
A2 | F2G2A2c2B2A2 | G2F2G2F4

@@@ Tune index: 10403
